images/php-edge.svg

<svg height="198" viewBox="0 0 163 198" width="163" xmlns="http://www.w3.org/2000/svg"><g fill="#3a75cd" fill-rule="evenodd"><path d="m82.3514144 28.1636603c-1.5561313.2057711-2.3860679 1.5432838-2.7491652 2.4178111 0 0-9.4405293 24.3324405-9.2330452 25.9786095 0 1.7490545 1.4523892 3.1894527 3.2678756 3.1894527h5.6020723.2593553l-2.1267127 19.9598034c-.1556131 1.3889555.3630973 2.7264684 2.0748416 3.0351246 2.0229707.2057722 3.0603914-1.3889556 3.4753598-2.4178109 0 0 9.4405299-24.3324408 9.2330447-25.9786098 0-1.7490544-1.4523892-3.1894527-3.267875-3.1894527h-5.6020724-.2593553l2.1267128-19.9598032c.1556129-1.3889554-.4149683-2.726468-2.1267128-3.0351247z" stroke="#fff"/><path d="m53.6161071 123.211687h-1.51375-12.2582857v30.454875h5.7707857v-9.838125h6.8026072l1.3345714-.02475c4.1581786 0 6.92-.66825 8.2916429-2.00475 1.3654643-1.342687 2.0451071-4.046625 2.0451071-8.124187 0-4.102313-.7105357-6.874313-2.1501428-8.309813-1.4334286-1.441687-4.2076072-2.15325-8.3225358-2.15325zm3.5526786 14.843813c-.7043571.606375-2.3663928.903375-4.9799286.903375h-6.574v-10.89h7.1547858c2.4590714 0 3.9913571.309375 4.5721428.921937.5931429.61875.8835357 2.208938.8835357 4.782938 0 2.258437-.3521785 3.681562-1.0565357 4.28175z"/><path d="m87.7959643 135.636187h-14.2663214v-12.4245h-5.7646072v30.454875h5.7646072v-13.167h14.2663214v13.167h5.7707857v-30.454875h-5.7707857z"/><path d="m120.999607 125.364937c-1.42725-1.4355-4.207607-2.15325-8.322536-2.15325h-1.51375-12.2521067v30.454875h5.7707857v-9.838125h6.802607l1.334572-.02475c4.164357 0 6.92-.66825 8.291642-2.00475 1.365465-1.342687 2.051286-4.046625 2.051286-8.124187-.006178-4.1085-.729071-6.8805-2.1625-8.309813zm-4.763678 12.690563c-.704358.606375-2.366393.903375-4.979929.903375h-6.574v-10.89h7.154786c2.459071 0 3.991357.309375 4.578321.921937.586964.61875.883536 2.208938.883536 4.782938-.006179 2.258437-.358357 3.681562-1.062714 4.28175z"/><path d="m.66575 18.4944375v179.5055625h143.194571c10.157572 0 18.46775-8.322187 18.46775-18.494438v-179.505562h-143.1883924c-10.15757146 0-18.4739286 8.3221875-18.4739286 18.4944375zm6.17857143 89.3660625h149.30517857v61.262437h-149.30517857zm137.01599957 83.952h-137.01599957v-16.502062h149.30517857v4.195125c.006179 6.787687-5.511286 12.306937-12.289179 12.306937zm12.295358-90.1395h-149.31135757v-83.1785625c0-6.7876875 5.51746427-12.3069375 12.29535717-12.3069375h137.0160004z"/></g></svg>

<?xml version="1.0" encoding="UTF-8" standalone="no"?>
<svg width="163px" height="198px" viewBox="0 0 163 198" version="1.1" xmlns="http://www.w3.org/2000/svg" xmlns:xlink="http://www.w3.org/1999/xlink">
    <!-- Generator: Sketch 41.2 (35397) - http://www.bohemiancoding.com/sketch -->
    <title>Edge</title>
    <desc>Created with Sketch.</desc>
    <defs></defs>
    <g id="Page-1" stroke="none" stroke-width="1" fill="none" fill-rule="evenodd">
        <g id="Artboard" transform="translate(-188.000000, -150.000000)" fill="#3A75CD">
            <g id="Edge" transform="translate(188.000000, 150.000000)">
                <path d="M82.3514144,28.1636603 C80.7952831,28.3694314 79.9653465,29.7069441 79.6022492,30.5814714 C79.6022492,30.5814714 70.1617199,54.9139119 70.369204,56.5600809 C70.369204,58.3091354 71.8215932,59.7495336 73.6370796,59.7495336 L79.2391519,59.7495336 L79.4985072,59.7495336 L77.3717945,79.709337 C77.2161814,81.0982925 77.7348918,82.4358054 79.4466361,82.7444616 C81.4696068,82.9502338 82.5070275,81.355506 82.9219959,80.3266507 C82.9219959,80.3266507 92.3625258,55.9942099 92.1550406,54.3480409 C92.1550406,52.5989865 90.7026514,51.1585882 88.8871656,51.1585882 L83.2850932,51.1585882 L83.0257379,51.1585882 L85.1524507,31.198785 C85.3080636,29.8098296 84.7374824,28.472317 83.0257379,28.1636603 L82.3514144,28.1636603 Z" id="path4075" stroke="#FFFFFF"></path>
                <path d="M53.6161071,123.211687 L52.1023571,123.211687 L39.8440714,123.211687 L39.8440714,153.666562 L45.6148571,153.666562 L45.6148571,143.828437 L52.4174643,143.828437 L53.7520357,143.803687 C57.9102143,143.803687 60.6720357,143.135437 62.0436786,141.798937 C63.4091429,140.45625 64.0887857,137.752312 64.0887857,133.67475 C64.0887857,129.572437 63.37825,126.800437 61.9386429,125.364937 C60.5052143,123.92325 57.7310357,123.211687 53.6161071,123.211687 Z M57.1687857,138.0555 C56.4644286,138.661875 54.8023929,138.958875 52.1888571,138.958875 L45.6148571,138.958875 L45.6148571,128.068875 L52.7696429,128.068875 C55.2287143,128.068875 56.761,128.37825 57.3417857,128.990812 C57.9349286,129.609562 58.2253214,131.19975 58.2253214,133.77375 C58.2253214,136.032187 57.8731429,137.455312 57.1687857,138.0555 Z" id="Shape"></path>
                <polygon id="Shape" points="87.7959643 135.636187 73.5296429 135.636187 73.5296429 123.211687 67.7650357 123.211687 67.7650357 153.666562 73.5296429 153.666562 73.5296429 140.499562 87.7959643 140.499562 87.7959643 153.666562 93.56675 153.666562 93.56675 123.211687 87.7959643 123.211687"></polygon>
                <path d="M120.999607,125.364937 C119.572357,123.929437 116.792,123.211687 112.677071,123.211687 L111.163321,123.211687 L98.9112143,123.211687 L98.9112143,153.666562 L104.682,153.666562 L104.682,143.828437 L111.484607,143.828437 L112.819179,143.803687 C116.983536,143.803687 119.739179,143.135437 121.110821,141.798937 C122.476286,140.45625 123.162107,137.752312 123.162107,133.67475 C123.155929,129.56625 122.433036,126.79425 120.999607,125.364937 Z M116.235929,138.0555 C115.531571,138.661875 113.869536,138.958875 111.256,138.958875 L104.682,138.958875 L104.682,128.068875 L111.836786,128.068875 C114.295857,128.068875 115.828143,128.37825 116.415107,128.990812 C117.002071,129.609562 117.298643,131.19975 117.298643,133.77375 C117.292464,136.032187 116.940286,137.455312 116.235929,138.0555 Z" id="Shape"></path>
                <path d="M0.66575,18.4944375 L0.66575,198 L143.860321,198 C154.017893,198 162.328071,189.677813 162.328071,179.505562 L162.328071,0 L19.1396786,0 C8.98210714,0 0.66575,8.3221875 0.66575,18.4944375 Z M6.84432143,107.8605 L156.1495,107.8605 L156.1495,169.122937 L6.84432143,169.122937 L6.84432143,107.8605 Z M143.860321,191.8125 L6.84432143,191.8125 L6.84432143,175.310438 L156.1495,175.310438 L156.1495,179.505563 C156.155679,186.29325 150.638214,191.8125 143.860321,191.8125 Z M156.155679,101.673 L6.84432143,101.673 L6.84432143,18.4944375 C6.84432143,11.70675 12.3617857,6.1875 19.1396786,6.1875 L156.155679,6.1875 L156.155679,101.673 Z" id="Shape"></path>
            </g>
        </g>
    </g>
</svg>
